papirus/32x32/apps/kodi.svg

<?xml version="1.0" encoding="UTF-8" standalone="no"?>
<!-- Created with Inkscape (http://www.inkscape.org/) -->

<svg
   xmlns:dc="http://purl.org/dc/elements/1.1/"
   xmlns:cc="http://creativecommons.org/ns#"
   xmlns:rdf="http://www.w3.org/1999/02/22-rdf-syntax-ns#"
   xmlns:svg="http://www.w3.org/2000/svg"
   xmlns="http://www.w3.org/2000/svg"
   xmlns:sodipodi="http://sodipodi.sourceforge.net/DTD/sodipodi-0.dtd"
   xmlns:inkscape="http://www.inkscape.org/namespaces/inkscape"
   id="svg4163"
   height="32"
   width="32"
   version="1.1"
   viewBox="0 0 32.000001 32.000001"
   inkscape:version="0.91 r13725"
   sodipodi:docname="kodi.svg">
  <defs
     id="defs10" />
  <sodipodi:namedview
     pagecolor="#5b5b5b"
     bordercolor="#666666"
     borderopacity="1"
     objecttolerance="10"
     gridtolerance="10"
     guidetolerance="10"
     inkscape:pageopacity="0"
     inkscape:pageshadow="2"
     inkscape:window-width="1600"
     inkscape:window-height="849"
     id="namedview8"
     showgrid="false"
     inkscape:zoom="12.239653"
     inkscape:cx="16"
     inkscape:cy="15.164821"
     inkscape:window-x="0"
     inkscape:window-y="0"
     inkscape:window-maximized="1"
     inkscape:current-layer="svg4163" />
  <metadata
     id="metadata4168">
    <rdf:RDF>
      <cc:Work
         rdf:about="">
        <dc:format>image/svg+xml</dc:format>
        <dc:type
           rdf:resource="http://purl.org/dc/dcmitype/StillImage" />
        <dc:title></dc:title>
      </cc:Work>
    </rdf:RDF>
  </metadata>
  <path
     transform="matrix(0.70710678,0.70710678,-0.70710678,0.70710678,0,0)"
     style="opacity:1;fill:#ffffff;fill-opacity:1;stroke:none;stroke-width:4;stroke-linecap:round;stroke-linejoin:round;stroke-miterlimit:4;stroke-dasharray:none;stroke-opacity:1"
     d="m 13.547542,-10.253684 18.159753,0 c 0.65029,0 1.173808,0.5589344 1.173808,1.2532161 l 0,18.0009358 c 0,0.6942817 -0.523518,1.2532161 -1.173808,1.2532161 l -18.159753,0 c -0.650289,0 -1.173808,-0.5589344 -1.173808,-1.2532161 l 0,-18.0009358 c 0,-0.6942817 0.523519,-1.2532161 1.173808,-1.2532161 z"
     id="rect4141" />
  <path
     style="fill:#31afe1"
     d="M 15.980469 2 C 15.671495 2.0110648 15.357755 2.1402921 15.113281 2.3847656 L 11 6.4980469 L 11 19.378906 L 22.439453 7.9394531 L 16.830078 2.3300781 C 16.600166 2.1001662 16.294572 1.9898509 15.984375 2 A 1.3737 1.3737 0 0 0 15.980469 2 z M 8 9.4980469 L 2.3847656 15.113281 C 2.1413983 15.356649 2.0140297 15.668957 2.0019531 15.976562 A 1.3737 1.3737 0 0 0 2.0019531 15.992188 C 1.993952 16.299601 2.1021755 16.602175 2.3300781 16.830078 L 7.9394531 22.439453 L 8 22.378906 L 8 9.4980469 z M 24.560547 10.060547 L 18.289062 16.332031 L 24.228516 22.273438 L 29.615234 16.886719 C 29.858602 16.643351 29.98597 16.331043 29.998047 16.023438 A 1.3737 1.3737 0 0 0 29.998047 16.007812 C 30.006048 15.700399 29.897825 15.397825 29.669922 15.169922 L 24.560547 10.060547 z M 16.167969 18.453125 L 11 23.621094 L 11 25.5 L 15.169922 29.669922 C 15.399352 29.899352 15.704143 30.00963 16.013672 30 A 1.3737 1.3737 0 0 0 16.015625 30 C 16.325822 29.989851 16.641253 29.8607 16.886719 29.615234 L 22.107422 24.394531 L 16.167969 18.453125 z "
     id="rect4809" />
  <path
     style="opacity:0.2;fill:#ffffff;fill-opacity:1;stroke:none;stroke-width:4;stroke-linecap:round;stroke-linejoin:round;stroke-miterlimit:4;stroke-dasharray:none;stroke-opacity:1"
     d="M 15.984375 2 C 15.674178 2.0101491 15.358747 2.1393 15.113281 2.3847656 L 2.3847656 15.113281 C 1.993958 15.504089 1.9040468 16.067609 2.1132812 16.513672 C 2.1772822 16.370331 2.2655049 16.232542 2.3847656 16.113281 L 15.113281 3.3847656 C 15.604212 2.8938343 16.370255 2.8702544 16.830078 3.3300781 L 29.669922 16.169922 C 29.763701 16.263701 29.833114 16.372048 29.886719 16.486328 C 30.086175 16.039613 30.018042 15.518042 29.669922 15.169922 L 16.830078 2.3300781 C 16.600166 2.1001662 16.294572 1.9898509 15.984375 2 z "
     id="path4147" />
  <path
     style="opacity:0.3;fill:#000000;fill-opacity:1;stroke:none;stroke-width:4;stroke-linecap:round;stroke-linejoin:round;stroke-miterlimit:4;stroke-dasharray:none;stroke-opacity:1"
     d="M 29.886719 15.486328 C 29.822718 15.629669 29.734495 15.767458 29.615234 15.886719 L 16.886719 28.615234 C 16.395788 29.106165 15.629746 29.129746 15.169922 28.669922 L 2.3300781 15.830078 C 2.2362987 15.736299 2.1668865 15.627952 2.1132812 15.513672 C 1.9138252 15.960387 1.9819582 16.481958 2.3300781 16.830078 L 15.169922 29.669922 C 15.629746 30.129746 16.395787 30.106166 16.886719 29.615234 L 29.615234 16.886719 C 30.006042 16.495911 30.095953 15.932391 29.886719 15.486328 z "
     id="path4152" />
</svg>

<?xml version="1.0" encoding="UTF-8" standalone="no"?>
<svg id="svg4163" xmlns:rdf="http://www.w3.org/1999/02/22-rdf-syntax-ns#" xmlns="http://www.w3.org/2000/svg" height="32" width="32" version="1.1" xmlns:cc="http://creativecommons.org/ns#" viewBox="0 0 32.000001 32.000001" xmlns:dc="http://purl.org/dc/elements/1.1/">
 <metadata id="metadata4168">
  <rdf:RDF>
   <cc:Work rdf:about="">
    <dc:format>image/svg+xml</dc:format>
    <dc:type rdf:resource="http://purl.org/dc/dcmitype/StillImage"/>
    <dc:title/>
   </cc:Work>
  </rdf:RDF>
 </metadata>
 <path id="rect4141" d="m13.548-10.254h18.16c0.65029 0 1.1738 0.55893 1.1738 1.2532v18.001c0 0.69428-0.52352 1.2532-1.1738 1.2532h-18.16c-0.65029 0-1.1738-0.55893-1.1738-1.2532v-18.001c0-0.69428 0.52352-1.2532 1.1738-1.2532z" transform="rotate(45)" fill="#fff"/>
 <path id="rect4809" fill="#31afe1" d="m15.98 2c-0.309 0.0111-0.622 0.1403-0.867 0.3848l-4.113 4.1132v12.881l11.439-11.44-5.609-5.6089c-0.23-0.2299-0.535-0.3402-0.846-0.3301a1.3737 1.3737 0 0 0 -0.004 0zm-7.98 7.498l-5.6152 5.615c-0.2434 0.244-0.3708 0.556-0.3828 0.864a1.3737 1.3737 0 0 0 0 0.015c-0.008 0.308 0.1002 0.61 0.3281 0.838l5.6094 5.609 0.0605-0.06v-12.881zm16.561 0.563l-6.272 6.271 5.94 5.941 5.386-5.386c0.244-0.244 0.371-0.556 0.383-0.864a1.3737 1.3737 0 0 0 0 -0.015c0.008-0.308-0.1-0.61-0.328-0.838l-5.109-5.109zm-8.393 8.392l-5.168 5.168v1.879l4.17 4.17c0.229 0.229 0.534 0.34 0.844 0.33a1.3737 1.3737 0 0 0 0.002 0c0.31-0.01 0.625-0.139 0.871-0.385l5.22-5.22-5.939-5.942z"/>
 <path id="path4147" opacity=".2" d="m15.984 2c-0.31 0.0101-0.625 0.1393-0.871 0.3848l-12.728 12.728c-0.391 0.391-0.481 0.955-0.2717 1.401 0.064-0.144 0.1522-0.281 0.2715-0.401l12.728-12.728c0.491-0.4912 1.257-0.5147 1.717-0.0549l12.84 12.84c0.094 0.094 0.163 0.202 0.217 0.316 0.199-0.446 0.131-0.968-0.217-1.316l-12.84-12.84c-0.23-0.2298-0.535-0.3401-0.846-0.33z" fill="#fff"/>
 <path id="path4152" opacity=".2" d="m29.887 16.487c-0.064 0.14334-0.15222 0.28113-0.27148 0.40039l-12.729 12.729c-0.49093 0.49093-1.257 0.51451-1.7168 0.05469l-12.84-12.841c-0.093779-0.09378-0.16319-0.20213-0.2168-0.31641-0.19946 0.44672-0.13132 0.96829 0.2168 1.3164l12.84 12.84c0.45982 0.45982 1.2259 0.43624 1.7168-0.05469l12.728-12.728c0.39081-0.39081 0.48072-0.95433 0.27148-1.4004z"/>
</svg>
